dist/img/sprites/browse.svg

<svg width="25" height="24" viewBox="0 0 25 24" fill="none" xmlns="http://www.w3.org/2000/svg">
<path d="M21.4102 12H3.41016M12.4102 21C10.6301 21 8.89007 20.4722 7.41003 19.4832C5.92999 18.4943 4.77643 17.0887 4.09524 15.4442C3.41406 13.7996 3.23583 11.99 3.58309 10.2442C3.93036 8.49836 4.78753 6.89472 6.0462 5.63604C7.30487 4.37737 8.90852 3.5202 10.6543 3.17294C12.4002 2.82567 14.2098 3.0039 15.8543 3.68509C17.4988 4.36628 18.9045 5.51983 19.8934 6.99987C20.8823 8.47991 21.4102 10.22 21.4102 12C21.4102 14.387 20.4619 16.6761 18.7741 18.364C17.0863 20.0518 14.7971 21 12.4102 21V21ZM16.4102 12C16.4102 7 14.6202 3 12.4102 3C10.2002 3 8.41016 7 8.41016 12C8.41016 17 10.2002 21 12.4102 21C14.6202 21 16.4102 17 16.4102 12Z" stroke="#8C8C8C" stroke-width="2" stroke-linecap="round" stroke-linejoin="round"/>
</svg>

<svg width="25" height="24" viewBox="0 0 25 24" fill="none" xmlns="http://www.w3.org/2000/svg"><path d="M21.41 12h-18m9 9a9 9 0 110-17.999 9 9 0 010 17.999v0zm4-9c0-5-1.79-9-4-9s-4 4-4 9 1.79 9 4 9 4-4 4-9z" stroke="#8C8C8C" stroke-width="2" stroke-linecap="round" stroke-linejoin="round"/></svg>
